X:214
T:Adan, d'amour vous demant
C:Adam de la Halle
R:Jeu-parti
O:XIIIe
M:6/8
L:1/8
Q:1/4=72
K:C 
%%continueall 1
%%maxshrink 0.6
V:1
V:1
%%MIDI program 41
A2G A2G | F2E D2z | E2F G2A | G3/2F/2E F2z | 
A2B c3/2c/2B | AB/2A/2G GFz | G2A ^A2G | =A3/2G/2G/2F/2 G2z | 
A^A=A G/2A/2GF | EDE F2G | A2c cB/2A/2B | GAG/2F/2 GAB/2c/2 | BA/2G/2A/2>G/2 G3 |]
V:2
%%MIDI program 41
D6- | D6 | D6- | D6 | 
D6- | D6 | D6- | D6 | 
D6- | D6 | D6- | D6- | D6 |]
V:3
%%MIDI program 46
DAd DAd | DAd DAd | DAd DAd | DAd DAd | 
DAd DAd | DAd DAd | DAd DAd | DAd DAd | 
DAd DAd | DAd DAd | DAd DAd | DAd DAd | DAd D3 |]



%%newpage




%%header "$P0	 $IR 	$P1"
%%footer $D - Éditions Galouvielle - 2009 - À usage librement privé dans le cadre familial

